static/img/kroki/d7b39930de527d3c766caa2ad55ea50e.svg

<?xml version="1.0" encoding="us-ascii" standalone="no"?><svg xmlns="http://www.w3.org/2000/svg" xmlns:xlink="http://www.w3.org/1999/xlink" contentStyleType="text/css" height="152px" preserveAspectRatio="none" style="width:277px;height:152px;" version="1.1" viewBox="0 0 277 152" width="277px" zoomAndPan="magnify"><defs/><g><!--class aws_cloudformation_stack--><g id="elem_aws_cloudformation_stack"><rect codeLine="22" fill="#3D176E" height="39.7891" id="aws_cloudformation_stack" rx="2.5" ry="2.5" style="stroke:#000D19;stroke-width:0.5;" width="263" x="7" y="7"/><ellipse cx="22" cy="26.8945" fill="#ADD1B2" rx="11" ry="11" style="stroke:#181818;stroke-width:1.0;"/><path d="M24.9688,32.5352 Q24.3906,32.832 23.75,32.9727 Q23.1094,33.1289 22.4063,33.1289 Q19.9063,33.1289 18.5781,31.4883 Q17.2656,29.832 17.2656,26.707 Q17.2656,23.582 18.5781,21.9258 Q19.9063,20.2695 22.4063,20.2695 Q23.1094,20.2695 23.75,20.4258 Q24.4063,20.582 24.9688,20.8789 L24.9688,23.5977 Q24.3438,23.0195 23.75,22.7539 Q23.1563,22.4727 22.5313,22.4727 Q21.1875,22.4727 20.5,23.5508 Q19.8125,24.6133 19.8125,26.707 Q19.8125,28.8008 20.5,29.8789 Q21.1875,30.9414 22.5313,30.9414 Q23.1563,30.9414 23.75,30.6758 Q24.3438,30.3945 24.9688,29.8164 L24.9688,32.5352 Z " fill="#000000"/><text fill="#D9B8FF" font-family="Helvetica" font-size="17" lengthAdjust="spacing" textLength="221" x="41" y="32.7798">aws_cloudformation_stack</text></g><!--class aws_resource--><g id="elem_aws_resource"><rect codeLine="24" fill="#3D176E" height="39.7891" id="aws_resource" rx="2.5" ry="2.5" style="stroke:#000D19;stroke-width:0.5;" width="155" x="61" y="106.79"/><ellipse cx="76" cy="126.6845" fill="#ADD1B2" rx="11" ry="11" style="stroke:#181818;stroke-width:1.0;"/><path d="M78.9688,132.3252 Q78.3906,132.622 77.75,132.7627 Q77.1094,132.9189 76.4063,132.9189 Q73.9063,132.9189 72.5781,131.2783 Q71.2656,129.622 71.2656,126.497 Q71.2656,123.372 72.5781,121.7158 Q73.9063,120.0595 76.4063,120.0595 Q77.1094,120.0595 77.75,120.2158 Q78.4063,120.372 78.9688,120.6689 L78.9688,123.3877 Q78.3438,122.8095 77.75,122.5439 Q77.1563,122.2627 76.5313,122.2627 Q75.1875,122.2627 74.5,123.3408 Q73.8125,124.4033 73.8125,126.497 Q73.8125,128.5908 74.5,129.6689 Q75.1875,130.7314 76.5313,130.7314 Q77.1563,130.7314 77.75,130.4658 Q78.3438,130.1845 78.9688,129.6064 L78.9688,132.3252 Z " fill="#000000"/><text fill="#D9B8FF" font-family="Helvetica" font-size="17" lengthAdjust="spacing" textLength="113" x="95" y="132.5698">aws_resource</text></g><!--link aws_cloudformation_stack to aws_resource--><g id="link_aws_cloudformation_stack_aws_resource"><path codeLine="26" d="M138.5,47.22 C138.5,64.36 138.5,83.27 138.5,100.41 " fill="none" id="aws_cloudformation_stack-to-aws_resource" style="stroke:#1A83AF;stroke-width:2.0;"/><polygon fill="#1A83AF" points="138.5,106.41,142.5,97.41,138.5,101.41,134.5,97.41,138.5,106.41" style="stroke:#1A83AF;stroke-width:2.0;"/></g><!--SRC=[XP3DIyD04CNl_IiMUYuq1arx4MAWwAM8zIPI9jdPTccoKsOdXYh-x_P3PPlquphlD_FUcwNLgB1QoqPLMEN8lkTNrgs1eL8fCpKPbSIgRmoOE6cB4t9o5PX2XUeHomyKMq2RU5tQOkNGUtKJI0zGh1PCjTE7yyBW_5P29m6LbU1zAi8shmM3C7gSZunfa-sZ_LX7oHrsC6AD_8iCXqCTZTl8LQkBlV-9cVr45OLFcv9W9sR7OazTJBaZWf2Ted_wsOpFeBLr2tKRp5uEcTWX7yrdIz3Kx6W3fGzjl20ZoMQDMQSLZaVQ92VXftDmiVkSWiRFYv9gROWh44jkxcMxeRvwtm72wAdc0lVZipk3jtwKZk9qyZwuFrhx0G00]--></g></svg>

<svg xmlns="http://www.w3.org/2000/svg" width="277" height="152" viewBox="0 0 277 152"><rect width="263" height="39.789" x="7" y="7" fill="#3D176E" rx="2.5" ry="2.5" style="stroke:#000d19;stroke-width:.5"/><circle cx="22" cy="26.895" r="11" fill="#ADD1B2" style="stroke:#181818;stroke-width:1"/><path d="M24.969 32.535q-.578.297-1.219.438-.64.156-1.344.156-2.5 0-3.828-1.64-1.312-1.657-1.312-4.782t1.312-4.781q1.328-1.656 3.828-1.656.703 0 1.344.156.656.156 1.219.453v2.719q-.625-.578-1.219-.844-.594-.281-1.219-.281-1.343 0-2.031 1.078-.687 1.062-.687 3.156t.687 3.172q.688 1.062 2.031 1.062.625 0 1.219-.265.594-.281 1.219-.86z"/><text x="41" y="32.78" fill="#D9B8FF" font-family="Helvetica" font-size="17" textLength="221">aws_cloudformation_stack</text><rect width="155" height="39.789" x="61" y="106.79" fill="#3D176E" rx="2.5" ry="2.5" style="stroke:#000d19;stroke-width:.5"/><circle cx="76" cy="126.684" r="11" fill="#ADD1B2" style="stroke:#181818;stroke-width:1"/><path d="M78.969 132.325q-.578.297-1.219.438-.64.156-1.344.156-2.5 0-3.828-1.64-1.312-1.657-1.312-4.782t1.312-4.781q1.328-1.656 3.828-1.656.703 0 1.344.156.656.156 1.219.453v2.719q-.625-.579-1.219-.844-.594-.281-1.219-.281-1.344 0-2.031 1.078-.687 1.062-.687 3.156t.687 3.172q.688 1.062 2.031 1.062.625 0 1.219-.265.594-.281 1.219-.86z"/><text x="95" y="132.57" fill="#D9B8FF" font-family="Helvetica" font-size="17" textLength="113">aws_resource</text><path fill="none" d="M138.5 47.22v53.19" style="stroke:#1a83af;stroke-width:2"/><path fill="#1A83AF" d="m138.5 106.41 4-9-4 4-4-4z" style="stroke:#1a83af;stroke-width:2"/></svg>
